X:539
T:Reel 539
M:4/4
K:Cmaj
L:1/8
GF|ECC (3CB,C G,C (3CDC |ECGC ABcA|F<D (3DDD FDAD|FA,A,C DEFA:||2AFDF ECCB|G<C (3ECC GFEF|GccB A2AG|F<DdD B,DAD|FGAB cAGF|E<CCB, G,CGF|EccB cBcA|GAGF ECDB,|G,>C (3CB,C GABc|
